Libraries/Atlas.Resources/Icons/svg/list1.svg

<?xml version="1.0" encoding="UTF-8" standalone="no" ?>
<!DOCTYPE svg PUBLIC "-//W3C//DTD SVG 1.1//EN" "http://www.w3.org/Graphics/SVG/1.1/DTD/svg11.dtd">
<svg xmlns="http://www.w3.org/2000/svg" xmlns:xlink="http://www.w3.org/1999/xlink" version="1.1" width="24" height="24" viewBox="0 0 640 640" xml:space="preserve">
<desc>Created with Fabric.js 4.6.0</desc>
<defs>
</defs>
<g transform="matrix(10.14 0 0 10.14 320 320)" id="F_2Nmn4rnMcS_mDLW_aAL"  >
<g style="" vector-effect="non-scaling-stroke"   >
		<g transform="matrix(1 0 0 1 6.96 18.83)" id="SN0pk2e4FnMEG1UcgeBFC"  >
<path style="stroke: none; stroke-width: 1; stroke-dasharray: none; stroke-linecap: butt; stroke-dashoffset: 0; stroke-linejoin: miter; stroke-miterlimit: 4; fill: rgb(0,0,0); fill-rule: nonzero; opacity: 1;" vector-effect="non-scaling-stroke"  transform=" translate(-37.02, -48.89)" d="M 57.124 51.893 L 16.92 51.893 C 15.263000000000002 51.893 13.920000000000002 50.55 13.920000000000002 48.893 C 13.920000000000002 47.236000000000004 15.263000000000002 45.893 16.92 45.893 L 57.123000000000005 45.893 C 58.78 45.893 60.123000000000005 47.236000000000004 60.123000000000005 48.893 C 60.123000000000005 50.55 58.781 51.893 57.124 51.893 z" stroke-linecap="round" />
</g>
		<g transform="matrix(1 0 0 1 6.96 0)" id="mZ3XrhopmCgu4oUVqSGhq"  >
<path style="stroke: none; stroke-width: 1; stroke-dasharray: none; stroke-linecap: butt; stroke-dashoffset: 0; stroke-linejoin: miter; stroke-miterlimit: 4; fill: rgb(0,0,0); fill-rule: nonzero; opacity: 1;" vector-effect="non-scaling-stroke"  transform=" translate(-37.02, -30.06)" d="M 57.124 33.062 L 16.92 33.062 C 15.263000000000002 33.062 13.920000000000002 31.718999999999998 13.920000000000002 30.061999999999998 C 13.920000000000002 28.404999999999998 15.263000000000002 27.061999999999998 16.92 27.061999999999998 L 57.123000000000005 27.061999999999998 C 58.78 27.061999999999998 60.123000000000005 28.404999999999998 60.123000000000005 30.061999999999998 C 60.124 31.719 58.781 33.062 57.124 33.062 z" stroke-linecap="round" />
</g>
		<g transform="matrix(1 0 0 1 6.96 -18.83)" id="-qQ2jiAL3kScMqLde1JN4"  >
<path style="stroke: none; stroke-width: 1; stroke-dasharray: none; stroke-linecap: butt; stroke-dashoffset: 0; stroke-linejoin: miter; stroke-miterlimit: 4; fill: rgb(0,0,0); fill-rule: nonzero; opacity: 1;" vector-effect="non-scaling-stroke"  transform=" translate(-37.02, -11.23)" d="M 57.124 14.231 L 16.92 14.231 C 15.263000000000002 14.231 13.920000000000002 12.888 13.920000000000002 11.231 C 13.920000000000002 9.574 15.263000000000002 8.231 16.92 8.231 L 57.123000000000005 8.231 C 58.78 8.231 60.123000000000005 9.574 60.123000000000005 11.231 C 60.123000000000005 12.888 58.781 14.231 57.124 14.231 z" stroke-linecap="round" />
</g>
		<g transform="matrix(1 0 0 1 -26.03 -18.6)" id="TDf0kKBP3L7-hxIZXrw1y"  >
<path style="stroke: none; stroke-width: 1; stroke-dasharray: none; stroke-linecap: butt; stroke-dashoffset: 0; stroke-linejoin: miter; stroke-miterlimit: 4; fill: rgb(0,0,0); fill-rule: nonzero; opacity: 1;" vector-effect="non-scaling-stroke"  transform=" translate(-4.03, -4.03)" d="M 0 4.029 C 0 1.80384 1.80384 0 4.029 0 C 6.25416 0 8.058 1.80384 8.058 4.029 C 8.058 6.25416 6.25416 8.058 4.029 8.058 C 1.80384 8.058 0 6.25416 0 4.029 z" stroke-linecap="round" />
</g>
		<g transform="matrix(1 0 0 1 -26.03 0)" id="fuIXCddP8dx9A1VI2FbSu"  >
<path style="stroke: none; stroke-width: 1; stroke-dasharray: none; stroke-linecap: butt; stroke-dashoffset: 0; stroke-linejoin: miter; stroke-miterlimit: 4; fill: rgb(0,0,0); fill-rule: nonzero; opacity: 1;" vector-effect="non-scaling-stroke"  transform=" translate(-4.03, -4.03)" d="M 0 4.029 C 0 1.80384 1.80384 0 4.029 0 C 6.25416 0 8.058 1.80384 8.058 4.029 C 8.058 6.25416 6.25416 8.058 4.029 8.058 C 1.80384 8.058 0 6.25416 0 4.029 z" stroke-linecap="round" />
</g>
		<g transform="matrix(1 0 0 1 -26.03 18.6)" id="K3dudnDnHakYKWNYa8wBy"  >
<path style="stroke: none; stroke-width: 1; stroke-dasharray: none; stroke-linecap: butt; stroke-dashoffset: 0; stroke-linejoin: miter; stroke-miterlimit: 4; fill: rgb(0,0,0); fill-rule: nonzero; opacity: 1;" vector-effect="non-scaling-stroke"  transform=" translate(-4.03, -4.03)" d="M 0 4.029 C 0 1.80384 1.80384 0 4.029 0 C 6.25416 0 8.058 1.80384 8.058 4.029 C 8.058 6.25416 6.25416 8.058 4.029 8.058 C 1.80384 8.058 0 6.25416 0 4.029 z" stroke-linecap="round" />
</g>
</g>
</g>
</svg>

<?xml version="1.0" encoding="iso-8859-1"?>
<!-- Generator: Adobe Illustrator 19.0.0, SVG Export Plug-In . SVG Version: 6.00 Build 0)  -->
<svg version="1.1" id="Capa_1" xmlns="http://www.w3.org/2000/svg" xmlns:xlink="http://www.w3.org/1999/xlink" x="0px" y="0px"
	 viewBox="0 0 60.123 60.123" style="enable-background:new 0 0 60.123 60.123;" xml:space="preserve">
<g>
	<path d="M57.124,51.893H16.92c-1.657,0-3-1.343-3-3s1.343-3,3-3h40.203c1.657,0,3,1.343,3,3S58.781,51.893,57.124,51.893z"/>
	<path d="M57.124,33.062H16.92c-1.657,0-3-1.343-3-3s1.343-3,3-3h40.203c1.657,0,3,1.343,3,3
		C60.124,31.719,58.781,33.062,57.124,33.062z"/>
	<path d="M57.124,14.231H16.92c-1.657,0-3-1.343-3-3s1.343-3,3-3h40.203c1.657,0,3,1.343,3,3S58.781,14.231,57.124,14.231z"/>
	<circle cx="4.029" cy="11.463" r="4.029"/>
	<circle cx="4.029" cy="30.062" r="4.029"/>
	<circle cx="4.029" cy="48.661" r="4.029"/>
</g>
<g>
</g>
<g>
</g>
<g>
</g>
<g>
</g>
<g>
</g>
<g>
</g>
<g>
</g>
<g>
</g>
<g>
</g>
<g>
</g>
<g>
</g>
<g>
</g>
<g>
</g>
<g>
</g>
<g>
</g>
</svg>
